X: 5
T: Auld Lang Syne (Song)
C: words: Robert Burns
C: music: Trad.
Z: John Chambers <jc:trillian.mit.edu>
M: C
L: 1/4
K: F
"C7"C \
| "F"F>E FA | "Gm"G>F "C7"G(A/G/) | "F"F>F "Dm"A"C"c | "Bb"d3 d \
| "F"c>A "Dm"AF | "Gm"G>F "C"G"A7"(A/G/) | "Dm"F>D "C7"DC | "F"F3 |]
"Bb"d \
| "F"(c>A) "Dm"(AF) | "Gm"G>F "C9"Gd | "F"(c>A) (Ac) | "Bb"d3 "Gm"d \
| "F"c>A "Dm"AF | "Gm"G>F "C"G"A7"(A/G/) | "Dm"(F>D) "C7"(DC) | "F"F3 |]

%%sep 1 1 500

